Origami/16x16/mimetypes/application-x-plasma.svg

<svg xmlns="http://www.w3.org/2000/svg" width="16" height="16" version="1.1" viewBox="0 0 16 16">
 <path style="fill:#eba229" d="m2.75 1c-0.4172 0-0.75 0.3328-0.75 0.75v13.5c0 0.417 0.3328 0.75 0.75 0.75h10.5c0.418 0 0.75-0.332 0.75-0.75v-9.25l-4.125-0.875-0.875-4.125z"/>
 <path fill="#f5cc7a" d="m9 1v4.1667c0 0.4584 0.3749 0.8333 0.8333 0.8333h4.1667z"/>
 <path style="fill:#3f3f3f" d="M 7.1699219 7 C 7.0223119 7 6.8738769 7.0193834 6.7480469 7.0527344 C 5.7798469 7.3094344 4.7937281 7.7986156 4.2988281 8.9160156 C 3.5346281 10.732816 4.2865969 12.885984 5.9667969 13.708984 C 6.9002969 14.155984 7.7823187 14.112297 8.5117188 13.404297 C 8.7288188 13.195297 8.9012031 12.952469 8.9707031 12.605469 C 9.1096031 11.911469 8.7754094 10.932578 7.4121094 10.267578 C 6.1269094 9.6396781 5.8879125 8.7121156 6.0703125 8.1035156 C 6.2526125 7.4949156 6.9297688 6.9427813 7.9804688 7.1757812 C 8.0933687 7.1996813 8.2015531 7.2324906 8.3144531 7.2753906 C 8.1017531 7.1184906 7.6171219 6.9953 7.1699219 7 z M 9.5 7 C 9.225 7 9 7.225 9 7.5 C 9 7.775 9.225 8 9.5 8 C 9.775 8 10 7.775 10 7.5 C 10 7.225 9.775 7 9.5 7 z M 10.5 9 C 10.225 9 10 9.225 10 9.5 C 10 9.775 10.225 10 10.5 10 C 10.775 10 11 9.775 11 9.5 C 11 9.225 10.775 9 10.5 9 z M 10.5 11 C 10.225 11 10 11.225 10 11.5 C 10 11.775 10.225 12 10.5 12 C 10.775 12 11 11.775 11 11.5 C 11 11.225 10.775 11 10.5 11 z"/>
</svg>

<?xml version="1.0" encoding="UTF-8" standalone="no"?>
<svg
   xmlns:dc="http://purl.org/dc/elements/1.1/"
   xmlns:cc="http://creativecommons.org/ns#"
   xmlns:rdf="http://www.w3.org/1999/02/22-rdf-syntax-ns#"
   xmlns:svg="http://www.w3.org/2000/svg"
   xmlns="http://www.w3.org/2000/svg"
   viewBox="0 0 16 16"
   version="1.1"
   width="16px"
   height="16px"
   id="svg2">
  <defs
     id="defs13" />
  <metadata
     id="metadata17">
    <rdf:RDF>
      <cc:Work
         rdf:about="">
        <dc:format>image/svg+xml</dc:format>
        <dc:type
           rdf:resource="http://purl.org/dc/dcmitype/StillImage" />
      </cc:Work>
    </rdf:RDF>
  </metadata>
  <path
     style="fill:#deab47"
     d="M 2.75,1 C 2.3328,1 2,1.3328 2,1.75 l 0,13.5 C 2,15.667 2.3328,16 2.75,16 l 10.5,0 C 13.668,16 14,15.668 14,15.25 L 14,6 9.875,5.125 9,1 Z"
     id="path5" />
  <path
     style="fill:#f5cc7a"
     d="M 9,1 9,5.1666667 C 9,5.6250667 9.3749333,6 9.833333,6 L 14,6 Z"
     id="path7" />
  <path
     d="m7.1692 7.0001c-0.14761 0-0.29532 0.018989-0.42115 0.05234-0.9682 0.2567-1.9539 0.7464-2.4488 1.8638-0.7642 1.8168-0.013 3.9698 1.6672 4.7928 0.9335 0.447 1.8149 0.404 2.5443-0.304 0.2171-0.209 0.3908-0.452 0.4603-0.799 0.1389-0.694-0.1954-1.674-1.5587-2.339-1.2852-0.6279-1.5241-1.5552-1.3417-2.1638 0.1823-0.6086 0.8597-1.1602 1.9104-0.9272 0.1129 0.0239 0.2214 0.0571 0.3343 0.1-0.2127-0.1569-0.699-0.2806-1.1462-0.2759z"
     fill="#fff"
     id="path4149" />
  <path
     d="m9.5 7c-0.275 0-0.5 0.225-0.5 0.5s0.225 0.5 0.5 0.5 0.5-0.225 0.5-0.5-0.225-0.5-0.5-0.5z"
     fill="#fff"
     id="path4147" />
  <path
     d="m10.5 9c-0.275 0-0.5 0.225-0.5 0.5s0.225 0.5 0.5 0.5 0.5-0.225 0.5-0.5-0.225-0.5-0.5-0.5z"
     fill="#fff"
     id="path4145" />
  <path
     d="m10.5 11c-0.275 0-0.5 0.225-0.5 0.5s0.225 0.5 0.5 0.5 0.5-0.225 0.5-0.5-0.225-0.5-0.5-0.5z"
     fill="#fff"
     id="path9" />
  <path
     style="fill:#ffffff;fill-opacity:0.2"
     d="M 2.75,1 C 2.3328,1 2,1.3328 2,1.75 l 0,0.6 C 2,1.9328 2.3328,1.6 2.75,1.6 L 9,1.6 9,1 Z"
     id="path11" />
</svg>
